icons/svg/cart-plus.svg

﻿<?xml version="1.0" encoding="utf-8"?>
<!DOCTYPE svg PUBLIC "-//W3C//DTD SVG 1.1//EN" "http://www.w3.org/Graphics/SVG/1.1/DTD/svg11.dtd">
<svg xmlns="http://www.w3.org/2000/svg" xmlns:xlink="http://www.w3.org/1999/xlink" version="1.1" baseProfile="full" width="24" height="24" viewBox="0 0 24.00 24.00" enable-background="new 0 0 24.00 24.00" xml:space="preserve">
	<path fill="#000000" fill-opacity="1" stroke-width="0.2" stroke-linejoin="round" d="M 11.0013,8.99875L 12.9975,8.99875L 12.9975,6.00125L 16.0012,6.00125L 16.0012,3.99875L 12.9975,3.99875L 12.9975,1.00073L 11.0013,1.00073L 11.0013,3.99875L 7.9975,3.99875L 7.9975,6.00125L 11.0013,6.00125M 7.0025,17.9975C 5.89875,17.9975 5.01,18.9012 5.01,20C 5.01,21.0988 5.89875,22.0025 7.0025,22.0025C 8.1,22.0025 8.99875,21.0988 8.99875,20C 8.99875,18.9012 8.1,17.9975 7.0025,17.9975 Z M 17.0025,17.9975C 15.8988,17.9975 15.01,18.9012 15.01,20C 15.01,21.0988 15.8988,22.0025 17.0025,22.0025C 18.1,22.0025 18.9988,21.0988 18.9988,20C 18.9988,18.9012 18.1,17.9975 17.0025,17.9975 Z M 7.1675,14.7512L 7.2025,14.6287L 8.1,12.9975L 15.5513,12.9975C 16.2987,12.9975 16.9575,12.5875 17.3,11.9675L 21.1625,4.96125L 19.4188,3.99875L 19.4088,3.99875L 18.31,6.00125L 15.5513,11.0012L 8.53,11.0012L 8.39875,10.7325L 6.1625,6.00125L 5.21,3.99875L 4.2675,2.0025L 1.00125,2.0025L 1.00125,3.99875L 2.9975,3.99875L 6.60125,11.5912L 5.24875,14.0375C 5.0875,14.3212 5,14.6487 5,15C 5,16.0988 5.89875,17.0025 7.0025,17.0025L 18.9988,17.0025L 18.9988,15L 7.4225,15C 7.29,15 7.1675,14.8875 7.1675,14.7512 Z "/>
</svg>

<svg xmlns="http://www.w3.org/2000/svg" version="1.1" baseProfile="full" width="24" height="24" viewBox="0 0 24.00 24.00" xml:space="preserve"><path fill="#000" fill-opacity="1" stroke-width=".2" stroke-linejoin="round" d="M11 9H13V6H16V4H13V1H11v3H7.998v2h3.004M7.004 17.998c-1.104 0-1.993.904-1.993 2.003 0 1.1.89 2.003 1.993 2.003 1.097 0 1.996-.904 1.996-2.003 0-1.1-.9-2.003-1.997-2.003zm10 0c-1.104 0-1.993.904-1.993 2.003 0 1.1.89 2.003 1.993 2.003 1.097 0 1.996-.904 1.996-2.003 0-1.1-.9-2.003-1.997-2.003zM7.168 14.75l.034-.12.898-1.633h7.45c.75 0 1.407-.41 1.75-1.03l3.863-7.006L19.419 4h-.01l-1.1 2-2.76 5H8.53l-.13-.268-2.238-4.73-.952-2.003L4.268 2H1V4H3L6.6 11.59l-1.35 2.447c-.162.284-.25.612-.25.963 0 1.1.9 2.003 2.003 2.003h11.996V15H7.42c-.132 0-.254-.113-.254-.25z"/></svg>
